src/main/resources/icons/AllIcons/codeWithMe/cwmFullSync.svg

<!-- Copyright 2000-2021 JetBrains s.r.o. Use of this source code is governed by the Apache 2.0 license that can be found in the LICENSE file. -->
<svg xmlns="http://www.w3.org/2000/svg" width="16" height="16" viewBox="0 0 16 16">
  <g fill-rule="evenodd">
    <path fill="#6E6E6E" d="M11.4155 14L15.9995 14 15.9995 13 12.4095 13 11.4155 14zM12.5755 10.7C12.0985 10.7 11.5715 10.585 10.9995 10.367L10.9995 13 13.3495 10.637C13.0995 10.674 12.8435 10.7 12.5755 10.7L12.5755 10.7zM10.9995 7.69L10.9995 2 13.9995 2 13.9995 7.781C13.7585 8.041 13.3945 8.197 12.9995 8.262L12.9995 3 11.9995 3 11.9995 8.175C11.7135 8.076 11.3705 7.904 10.9995 7.69L10.9995 7.69zM2.4155 14L6.9995 14 6.9995 13 3.4095 13 2.4155 14zM3.4245 10.7C2.9135 10.7 2.4405 10.616 1.9995 10.482L1.9995 13 4.4485 10.537C4.1015 10.632 3.7555 10.7 3.4245 10.7L3.4245 10.7zM1.9995 7.781L1.9995 2 4.9995 2 4.9995 7.7C4.3945 8.049 3.8185 8.3 3.4245 8.3 2.8755 8.3 2.3265 8.134 1.9995 7.781L1.9995 7.781z"/>
    <path fill="#389FD6" d="M7.6655,6.6279 C6.9315,7.2879 4.7395,8.9999 3.4245,8.9999 C1.9975,8.9999 0.9995,8.1779 0.9995,6.9999 C0.9995,6.6209 1.1125,6.2849 1.2995,5.9949 L1.2995,4.6109 C0.4985,5.1459 -0.0005,5.9869 -0.0005,6.9999 C-0.0005,8.7379 1.4405,9.9999 3.4245,9.9999 C5.0465,9.9999 7.1745,8.3529 7.9995,7.6589 C8.1585,7.5249 8.2865,7.4149 8.3345,7.3719 C8.7105,7.0329 9.4715,6.4199 10.2995,5.9009 L10.2995,4.7399 C9.3375,5.2699 8.4625,5.9519 7.9995,6.3409 C7.8415,6.4749 7.7135,6.5849 7.6655,6.6279 M14.7005,4.6109 L14.7005,5.9949 C14.8875,6.2849 14.9995,6.6209 14.9995,6.9999 C14.9995,8.1779 14.0025,8.9999 12.5755,8.9999 C11.6575,8.9999 10.3215,8.1679 9.3425,7.4399 C9.1455,7.5969 8.9605,7.7499 8.8025,7.8929 C8.7485,7.9409 8.6595,8.0179 8.5575,8.1049 C9.5755,8.8889 11.2435,9.9999 12.5755,9.9999 C14.5595,9.9999 15.9995,8.7379 15.9995,6.9999 C15.9995,5.9869 15.5005,5.1459 14.7005,4.6109 M6.6565,6.5599 C6.3635,6.3409 6.0365,6.1149 5.7005,5.9039 L5.7005,4.7379 C6.3545,5.0999 6.9695,5.5309 7.4425,5.8959 C7.3405,5.9819 7.2515,6.0589 7.1975,6.1069 C7.0405,6.2489 6.8525,6.4029 6.6565,6.5599"/>
  </g>
</svg>

<svg xmlns="http://www.w3.org/2000/svg" width="16" height="16" viewBox="0 0 16 16"><rect id="frame" width="16" height="16" fill="none"/><g fill-rule="evenodd"><path fill="#6E6E6E" d="M11.415 14H16v-1h-3.59l-.995 1zm1.16-3.3c-.476 0-1.003-.115-1.575-.333V13l2.35-2.363a5.25 5.25 0 0 1-.774.063zM11 7.69V2h3v5.781c-.242.26-.605.416-1 .481V3h-1v5.175a6.17 6.17 0 0 1-1-.485zM2.414 14H7v-1H3.41l-.994 1zm1.01-3.3c-.511 0-.984-.084-1.425-.218V13l2.449-2.463a3.94 3.94 0 0 1-1.024.163zM2 7.781V2h3v5.7c-.606.349-1.182.6-1.575.6-.55 0-1.099-.166-1.425-.519z"/><path fill="#389FD6" d="M7.665 6.628C6.931 7.288 4.74 9 3.425 9 1.998 9 1 8.178 1 7c0-.38.113-.715.3-1.005V4.61C.498 5.146 0 5.987 0 7c0 1.738 1.44 3 3.425 3C5.046 10 7.175 8.353 8 7.659c.159-.134.287-.244.335-.287A15.54 15.54 0 0 1 10.299 5.9V4.74c-.961.53-1.836 1.212-2.3 1.6-.157.135-.285.245-.333.288M14.7 4.61v1.384c.188.29.3.626.3 1.005 0 1.178-.998 2-2.425 2-.917 0-2.253-.832-3.232-1.56-.197.157-.383.31-.54.453l-.246.212C9.575 8.889 11.243 10 12.575 10 14.56 10 16 8.738 16 7c0-1.013-.5-1.854-1.3-2.39M6.658 6.56a14.49 14.49 0 0 0-.957-.656V4.738a14.18 14.18 0 0 1 1.742 1.158c-.102.086-.19.163-.245.21a12.24 12.24 0 0 1-.54.454"/></g></svg>
